packages/core/src/svgs/luca.svg

<svg width="24" height="24" viewBox="0 0 24 24" fill="none" xmlns="http://www.w3.org/2000/svg">
<g clip-path="url(#clip0_31_13410)">
<path d="M0 0H24V24H0V0Z" fill="#0A2D27"/>
<path d="M15.4286 6.42864C15.5791 6.4288 15.727 6.38932 15.8574 6.31419C15.9878 6.23906 16.0961 6.13092 16.1715 6.00064C16.2468 5.87036 16.2866 5.72254 16.2867 5.57205C16.2868 5.42155 16.2472 5.27368 16.172 5.14331C16.0969 5.01293 15.9887 4.90465 15.8584 4.82936C15.7281 4.75406 15.5802 4.71439 15.4297 4.71436C15.2792 4.71432 15.1314 4.7539 15.001 4.82914C14.8707 4.90437 14.7625 5.01259 14.6872 5.14293H10.7144V6.00007H14.6872C14.8329 6.25721 15.1115 6.42864 15.4286 6.42864ZM15.4286 9.85721C15.5791 9.85737 15.727 9.81789 15.8574 9.74276C15.9878 9.66763 16.0961 9.55949 16.1715 9.42921C16.2468 9.29894 16.2866 9.15112 16.2867 9.00062C16.2868 8.85012 16.2472 8.70225 16.172 8.57188C16.0969 8.44151 15.9887 8.33323 15.8584 8.25793C15.7281 8.18263 15.5802 8.14297 15.4297 8.14293C15.2792 8.14289 15.1314 8.18248 15.001 8.25771C14.8707 8.33294 14.7625 8.44116 14.6872 8.5715H10.7144V9.42864H14.6872C14.8329 9.68578 15.1115 9.85721 15.4286 9.85721Z" fill="#FACA8C"/>
<path d="M17.1428 19.2856C17.6162 19.2856 17.9999 18.9018 17.9999 18.4284C17.9999 17.955 17.6162 17.5713 17.1428 17.5713C16.6694 17.5713 16.2856 17.955 16.2856 18.4284C16.2856 18.9018 16.6694 19.2856 17.1428 19.2856Z" fill="#FACA8C"/>
<path d="M17.5715 8.143C17.722 8.14315 17.8699 8.10368 18.0003 8.02855C18.1307 7.95341 18.239 7.84527 18.3144 7.715C18.3897 7.58472 18.4294 7.4369 18.4295 7.2864C18.4296 7.13591 18.3901 6.98804 18.3149 6.85766C18.2397 6.72729 18.1315 6.61901 18.0012 6.54371C17.8709 6.46841 17.7231 6.42875 17.5726 6.42871C17.4221 6.42867 17.2742 6.46826 17.1439 6.54349C17.0136 6.61872 16.9053 6.72695 16.8301 6.85728H10.7144V7.71442H16.8301C16.9758 7.97157 17.2544 8.143 17.5715 8.143Z" fill="#FACA8C"/>
<path fill-rule="evenodd" clip-rule="evenodd" d="M9.56571 5.14307C8.54571 5.14307 7.71429 5.81592 7.71429 6.81449C6.82286 6.81449 6 7.65878 6 8.52878V15.5145C6 16.4145 6.74571 17.1431 7.66286 17.1431C7.66286 18.1159 8.46857 18.8574 9.46286 18.8574H16.65C16.7829 19.0502 16.89 18.8574 17.1429 18.8574C17.55 18.8574 18 18.8488 18 18.4502C18 18.0516 17.55 18.0002 17.1429 18.0002C16.8686 18.0002 16.7486 17.7859 16.62 18.0002H9.46286C8.90143 18.0002 8.44714 17.6916 8.44714 17.1431H15V14.5716H10.2857V5.14307H9.56571ZM9.42857 6.00021V14.5716H8.57143V6.81449C8.57143 6.31735 8.91857 6.00021 9.42857 6.00021ZM7.71429 7.7145C7.25571 7.7145 6.85714 8.08307 6.85714 8.52878V15.6516C6.88714 16.0545 7.2 16.2859 7.61571 16.2859H14.1429V15.4288H7.71429V7.7145Z" fill="#FACA8C"/>
</g>
<defs>
<clipPath id="clip0_31_13410">
<rect width="24" height="24" fill="white"/>
</clipPath>
</defs>
</svg>

<svg xmlns="http://www.w3.org/2000/svg" width="24" height="24" fill="none" viewBox="0 0 24 24"><g clip-path="url(#a)"><path fill="#0A2D27" d="M0 0h24v24H0z"/><path fill="#FACA8C" d="M15.429 6.429a.857.857 0 1 0-.742-1.286h-3.973V6h3.973a.85.85 0 0 0 .742.429m0 3.428a.857.857 0 1 0-.742-1.285h-3.973v.857h3.973a.85.85 0 0 0 .742.428M17.143 19.286a.857.857 0 1 0 0-1.715.857.857 0 0 0 0 1.715"/><path fill="#FACA8C" d="M17.572 8.143a.857.857 0 1 0-.742-1.286h-6.116v.857h6.116a.85.85 0 0 0 .742.429"/><path fill="#FACA8C" fill-rule="evenodd" d="M9.566 5.143c-1.02 0-1.852.673-1.852 1.671C6.823 6.814 6 7.66 6 8.53v6.986c0 .9.746 1.628 1.663 1.628 0 .973.806 1.714 1.8 1.714h7.187c.133.193.24 0 .493 0 .407 0 .857-.008.857-.407s-.45-.45-.857-.45c-.274 0-.394-.214-.523 0H9.463c-.562 0-1.016-.308-1.016-.857H15v-2.571h-4.714V5.143zM9.429 6v8.572H8.57V6.814c0-.497.348-.814.858-.814M7.714 7.715c-.458 0-.857.368-.857.814v7.123c.03.403.343.634.759.634h6.527v-.857H7.714z" clip-rule="evenodd"/></g><defs><clipPath id="a"><path fill="#fff" d="M0 0h24v24H0z"/></clipPath></defs></svg>
